_includes/icons/ios-id-card.svg

<svg fill="#666" height="50" viewBox="0 0 50 50" width="50" xmlns="http://www.w3.org/2000/svg"><path d="m6 9c-2.199219 0-4 1.800781-4 4v24c0 2.199219 1.800781 4 4 4h38c2.199219 0 4-1.800781 4-4v-24c0-2.199219-1.800781-4-4-4zm0 2h38c1.117188 0 2 .882813 2 2v24c0 1.117188-.882812 2-2 2h-38c-1.117187 0-2-.882812-2-2v-24c0-1.117187.882813-2 2-2zm10.90625 4c-2.21875.039063-3.785156 1.089844-4.40625 2.5625-.550781 1.3125-.441406 2.792969-.125 4.21875-.007812.011719.007813.019531 0 .03125-.175781.300781-.332031.746094-.3125 1.28125.027344.769531.3125 1.347656.625 1.71875.164063.195313.234375.214844.375.3125.160156.496094.335938 1 .59375 1.34375.171875.230469.367188.339844.53125.5.011719.425781.023438.820313 0 1.21875-.082031.160156-.226562.332031-.6875.5625-.503906.253906-1.238281.511719-2 .84375s-1.570312.746094-2.25 1.4375c-.679687.691406-1.175781 1.683594-1.25 2.90625-.015625.277344.082031.546875.269531.746094.191407.203125.453125.316406.730469.316406h16c.277344 0 .539063-.113281.730469-.316406.1875-.199219.285156-.46875.269531-.746094-.074219-1.222656-.570312-2.214844-1.25-2.90625-.679687-.691406-1.488281-1.105469-2.25-1.4375s-1.496094-.589844-2-.84375c-.480469-.242187-.648437-.429687-.71875-.59375-.019531-.386719.019531-.773437.03125-1.1875.1875-.179687.425781-.292969.59375-.53125.246094-.355469.394531-.859375.53125-1.34375.335938-.25.96875-.789062.96875-1.90625 0-.46875-.234375-.753906-.375-1.09375.234375-.769531.53125-1.917969.40625-3.15625-.070312-.675781-.257812-1.371094-.75-1.96875-.40625-.496094-1.085937-.769531-1.8125-.875-.578125-.632812-1.382812-1.09375-2.4375-1.09375-.011719 0-.019531 0-.03125 0zm.03125 2h.03125c.632813.015625 1.058594.382813 1.125.5.175781.300781.496094.492188.84375.5.449219 0 .558594.09375.6875.25s.269531.472656.3125.90625c.085938.867188-.179687 2.066406-.34375 2.5625-.113281.332031-.042969.703125.1875.96875-.011719.011719.125.238281.125.5 0 .183594-.3125.46875-.3125.46875-.25.148438-.417969.402344-.46875.6875-.046875.328125-.191406.675781-.375.9375s-.429687.464844-.375.4375c-.335937.164063-.554687.5-.5625.875 0 .585938-.074219 1.15625 0 1.96875.011719.085938.03125.167969.0625.25.328125.875 1.058594 1.371094 1.75 1.71875s1.398438.617188 2.0625.90625c.664063.289063 1.238281.605469 1.625 1 .132813.136719.152344.398438.25.5625h-13.125c.097656-.164062.117188-.425781.25-.5625.386719-.394531.960938-.710937 1.625-1 .664063-.289062 1.371094-.558594 2.0625-.90625s1.425781-.839844 1.75-1.71875c.03125-.082031.050781-.164062.0625-.25.074219-.816406 0-1.382812 0-1.96875.003906-.359375-.1875-.695312-.5-.875.015625.015625.007813.019531-.03125 0-.058594-.054687-.253906-.234375-.40625-.4375-.214844-.285156-.402344-.671875-.4375-.9375-.050781-.328125-.261719-.609375-.5625-.75 0 0 .035156.015625-.03125-.0625s-.144531-.199219-.15625-.53125c-.003906-.101562.09375-.25.09375-.25.25-.253906.347656-.625.25-.96875-.351562-1.351562-.398437-2.640625-.0625-3.4375.332031-.789062.921875-1.304687 2.59375-1.34375zm11.875 2c-.550781.050781-.957031.542969-.90625 1.09375s.542969.957031 1.09375.90625h12c.359375.003906.695313-.183594.878906-.496094.179688-.3125.179688-.695312 0-1.007812-.183593-.3125-.519531-.5-.878906-.496094h-12c-.03125 0-.0625 0-.09375 0s-.0625 0-.09375 0zm0 5c-.550781.050781-.957031.542969-.90625 1.09375s.542969.957031 1.09375.90625h12c.359375.003906.695313-.183594.878906-.496094.179688-.3125.179688-.695312 0-1.007812-.183593-.3125-.519531-.5-.878906-.496094h-12c-.03125 0-.0625 0-.09375 0s-.0625 0-.09375 0zm0 5c-.550781.050781-.957031.542969-.90625 1.09375s.542969.957031 1.09375.90625h12c.359375.003906.695313-.183594.878906-.496094.179688-.3125.179688-.695312 0-1.007812-.183593-.3125-.519531-.5-.878906-.496094h-12c-.03125 0-.0625 0-.09375 0s-.0625 0-.09375 0z"/></svg>

<svg xmlns="http://www.w3.org/2000/svg" viewBox="0 0 50 50" width="50" height="50" fill="#666"><path d="M 6 9 C 3.800781 9 2 10.800781 2 13 L 2 37 C 2 39.199219 3.800781 41 6 41 L 44 41 C 46.199219 41 48 39.199219 48 37 L 48 13 C 48 10.800781 46.199219 9 44 9 Z M 6 11 L 44 11 C 45.117188 11 46 11.882813 46 13 L 46 37 C 46 38.117188 45.117188 39 44 39 L 6 39 C 4.882813 39 4 38.117188 4 37 L 4 13 C 4 11.882813 4.882813 11 6 11 Z M 16.90625 15 C 14.6875 15.039063 13.121094 16.089844 12.5 17.5625 C 11.949219 18.875 12.058594 20.355469 12.375 21.78125 C 12.367188 21.792969 12.382813 21.800781 12.375 21.8125 C 12.199219 22.113281 12.042969 22.558594 12.0625 23.09375 C 12.089844 23.863281 12.375 24.441406 12.6875 24.8125 C 12.851563 25.007813 12.921875 25.027344 13.0625 25.125 C 13.222656 25.621094 13.398438 26.125 13.65625 26.46875 C 13.828125 26.699219 14.023438 26.808594 14.1875 26.96875 C 14.199219 27.394531 14.210938 27.789063 14.1875 28.1875 C 14.105469 28.347656 13.960938 28.519531 13.5 28.75 C 12.996094 29.003906 12.261719 29.261719 11.5 29.59375 C 10.738281 29.925781 9.929688 30.339844 9.25 31.03125 C 8.570313 31.722656 8.074219 32.714844 8 33.9375 C 7.984375 34.214844 8.082031 34.484375 8.269531 34.683594 C 8.460938 34.886719 8.722656 35 9 35 L 25 35 C 25.277344 35 25.539063 34.886719 25.730469 34.683594 C 25.917969 34.484375 26.015625 34.214844 26 33.9375 C 25.925781 32.714844 25.429688 31.722656 24.75 31.03125 C 24.070313 30.339844 23.261719 29.925781 22.5 29.59375 C 21.738281 29.261719 21.003906 29.003906 20.5 28.75 C 20.019531 28.507813 19.851563 28.320313 19.78125 28.15625 C 19.761719 27.769531 19.800781 27.382813 19.8125 26.96875 C 20 26.789063 20.238281 26.675781 20.40625 26.4375 C 20.652344 26.082031 20.800781 25.578125 20.9375 25.09375 C 21.273438 24.84375 21.90625 24.304688 21.90625 23.1875 C 21.90625 22.71875 21.671875 22.433594 21.53125 22.09375 C 21.765625 21.324219 22.0625 20.175781 21.9375 18.9375 C 21.867188 18.261719 21.679688 17.566406 21.1875 16.96875 C 20.78125 16.472656 20.101563 16.199219 19.375 16.09375 C 18.796875 15.460938 17.992188 15 16.9375 15 C 16.925781 15 16.917969 15 16.90625 15 Z M 16.9375 17 C 16.953125 17 16.953125 17 16.96875 17 C 17.601563 17.015625 18.027344 17.382813 18.09375 17.5 C 18.269531 17.800781 18.589844 17.992188 18.9375 18 C 19.386719 18 19.496094 18.09375 19.625 18.25 C 19.753906 18.40625 19.894531 18.722656 19.9375 19.15625 C 20.023438 20.023438 19.757813 21.222656 19.59375 21.71875 C 19.480469 22.050781 19.550781 22.421875 19.78125 22.6875 C 19.769531 22.699219 19.90625 22.925781 19.90625 23.1875 C 19.90625 23.371094 19.59375 23.65625 19.59375 23.65625 C 19.34375 23.804688 19.175781 24.058594 19.125 24.34375 C 19.078125 24.671875 18.933594 25.019531 18.75 25.28125 C 18.566406 25.542969 18.320313 25.746094 18.375 25.71875 C 18.039063 25.882813 17.820313 26.21875 17.8125 26.59375 C 17.8125 27.179688 17.738281 27.75 17.8125 28.5625 C 17.824219 28.648438 17.84375 28.730469 17.875 28.8125 C 18.203125 29.6875 18.933594 30.183594 19.625 30.53125 C 20.316406 30.878906 21.023438 31.148438 21.6875 31.4375 C 22.351563 31.726563 22.925781 32.042969 23.3125 32.4375 C 23.445313 32.574219 23.464844 32.835938 23.5625 33 L 10.4375 33 C 10.535156 32.835938 10.554688 32.574219 10.6875 32.4375 C 11.074219 32.042969 11.648438 31.726563 12.3125 31.4375 C 12.976563 31.148438 13.683594 30.878906 14.375 30.53125 C 15.066406 30.183594 15.800781 29.691406 16.125 28.8125 C 16.15625 28.730469 16.175781 28.648438 16.1875 28.5625 C 16.261719 27.746094 16.1875 27.179688 16.1875 26.59375 C 16.191406 26.234375 16 25.898438 15.6875 25.71875 C 15.703125 25.734375 15.695313 25.738281 15.65625 25.71875 C 15.597656 25.664063 15.402344 25.484375 15.25 25.28125 C 15.035156 24.996094 14.847656 24.609375 14.8125 24.34375 C 14.761719 24.015625 14.550781 23.734375 14.25 23.59375 C 14.25 23.59375 14.285156 23.609375 14.21875 23.53125 C 14.152344 23.453125 14.074219 23.332031 14.0625 23 C 14.058594 22.898438 14.15625 22.75 14.15625 22.75 C 14.40625 22.496094 14.503906 22.125 14.40625 21.78125 C 14.054688 20.429688 14.007813 19.140625 14.34375 18.34375 C 14.675781 17.554688 15.265625 17.039063 16.9375 17 Z M 28.8125 19 C 28.261719 19.050781 27.855469 19.542969 27.90625 20.09375 C 27.957031 20.644531 28.449219 21.050781 29 21 L 41 21 C 41.359375 21.003906 41.695313 20.816406 41.878906 20.503906 C 42.058594 20.191406 42.058594 19.808594 41.878906 19.496094 C 41.695313 19.183594 41.359375 18.996094 41 19 L 29 19 C 28.96875 19 28.9375 19 28.90625 19 C 28.875 19 28.84375 19 28.8125 19 Z M 28.8125 24 C 28.261719 24.050781 27.855469 24.542969 27.90625 25.09375 C 27.957031 25.644531 28.449219 26.050781 29 26 L 41 26 C 41.359375 26.003906 41.695313 25.816406 41.878906 25.503906 C 42.058594 25.191406 42.058594 24.808594 41.878906 24.496094 C 41.695313 24.183594 41.359375 23.996094 41 24 L 29 24 C 28.96875 24 28.9375 24 28.90625 24 C 28.875 24 28.84375 24 28.8125 24 Z M 28.8125 29 C 28.261719 29.050781 27.855469 29.542969 27.90625 30.09375 C 27.957031 30.644531 28.449219 31.050781 29 31 L 41 31 C 41.359375 31.003906 41.695313 30.816406 41.878906 30.503906 C 42.058594 30.191406 42.058594 29.808594 41.878906 29.496094 C 41.695313 29.183594 41.359375 28.996094 41 29 L 29 29 C 28.96875 29 28.9375 29 28.90625 29 C 28.875 29 28.84375 29 28.8125 29 Z"/></svg>
